X: 1
T: Leaving Friday Harbor
C: John McCusker
R: air
Z: 2015 John Chambers <jc:trillian.mit.edu>
M: 3/4
L: 1/8
K: D
"A"[|] A2 |\
"D"f2 f2 ed |[M:2/4] "D/C#"ef "G/B"A2 |[M:3/4] "D"f3 f ed | "G/B"ef "D"a2 af |\
"G"g2 gf ed | "Gmaj7"ef B4 | "Em7"d2 dcde | "A7"c/d/c BA "/C#"de |
"D"f2 f2 ed |[M:2/4] "D/C#"ef "G/B"A2 |[M:3/4] f3 f ed | "G/B"ef "D"a3 f |\
"G"g2 gf ed | "Gmaj7"ef B3 d | "A7"c/d/c BA "/C#"ef | "D"d4 :|
"B1"[|] dc |\
"A7"c2 Ac "/C#"eg | "Dalt"gf a3 f | "G"g2 B3 g | "D"gf ef d/e/f |\
"G"g2 B3 g | "D"gf ef d/e/f | "Em"e2 B2 ef | "G"ed- dc BA |
"A7"c2 Ac "/C#"eg | "Dalt"gf a3 f | "G"g2 B3 g | "D"gf ef dc |\
"G"B2 GB B/c/d | "D"Ad f2 fa | "A7"ag ec "/C#"ef | "D"d4 |]
"B2"[|] dc |\
"A7"c2 Ac "/C#"eg | "Dalt"gf a3 f | "G"g2 B3 g | "D"gf ef d/e/f |\
"G"g2 B3 g | "D"gf ef df | "Em"e2 B2 ef | "G"ed- dc BA |
"D"f2 f2 ed |[M:2/4] "D/C#"ef "G/B"A2 |[M:3/4] "D"f3 f ed | "G/B"ef "D"a3 f |\
"G"g2 gf ed | "Gmaj7"ef B3 d | "A7"c/d/c BA "/C#"ef | "D"d4 |]
